X:1
T:Cleansing Now Receive
T:Cleansing Now Receive
T:William Burchinell Judefind
T:William Burchinell Judefind, 1902
T:Public Domain Courtesy of the Cyber Hymnal™
C:William Burchinell Judefind
Z:Public Domain
Z:Courtesy of the Cyber Hymnal™
%%score 1 ( 2 3 )
L:1/8
Q:1/4=110
M:4/4
K:Ab
V:1 treble 
V:2 bass 
V:3 bass 
V:1
 [CE]2 | [CE]3 [CA] [DG]2 [CA]2 | [Ec]2 [EA]2 [DF]2 [DF]2 | [=DB]3 [DA] [DG]2 [DA]2 | [DB]6 [DE]2 | %5
w: 1.~Un-|to the Lord a|lep- er came, De-|sir- ing to be|healed, And|
w: 2.~The|ten- der heart of|Je- sus ne’er Re-|fused so strong ap-|peal, And|
w: 3.~The|touch di- vine his|cleans- ing wrought; Phy-|si- cians all had|failed; But|
w: 4.~Come|to the Lord for|heal- ing now, None|o- ther can a-|vail; Call|
 [=Ec]3 [GB] [FA]2 [EG]2 | [EG]2 [DF]2 !fermata![FA]2 ([FA][_FB]) | [Ec]2 [DA]2 [Ec]3 [DB] | %8
w: on his knees be-|fore Him fell; For *|cleans- ing there ap-|
w: there the lep- er|was made whole, Where *|hum- bly he did|
w: Je- sus, the Phy-|si- cian Great, For *|him has now a-|
w: on Him here for|cleans- ing power; Your *|prayer will sure pre-|
 [CA]6 z2 ||"^Refrain" [CE]2 [Ec]2 [Ec] [DB]3 | [DE]2 [DB]2 [DB] [CA]3 | [DF]2 [DA]2 [=Dc]2 [DB]2 | %12
w: pealed.||||
w: kneel.|He can heal thee,|He will heal thee,|If you wilt be-|
w: vailed.||||
w: vail.||||
 ([EB]4 [Gd]2) z2 | [Ac]2 [Ee]2 [Ee] [Ec]3 | [EB]2 [EA]2 [FB] [DF]3 | [CE]2 [Ec]2 [DB]3 [DG] | %16
w: ||||
w: lieve; *|Trust Him ful- ly,|trust Him ful- ly;|Cleans- ing now re-|
w: ||||
w: ||||
 [CA]6 |] %17
w: |
w: ceive.|
w: |
w: |
V:2
 [A,,A,]2 | [A,,A,]3 [A,,E,] [B,,E,]2 [A,,E,]2 | [A,,A,]2 [C,A,]2 [D,A,]2 [D,A,]2 | %3
 [B,,B,]3 [B,,B,] [B,,A,]2 [B,,F,]2 | [E,G,]6 [E,G,]2 | [C,G,]3 [C,C] [C,C]2 [C,B,]2 | %6
 [D,A,]2 [D,A,]2 !fermata![D,A,]2 [D,A,]2 | [E,A,]2 [E,A,]2 [E,G,]3 [E,G,] | [A,,A,]6 z2 || %9
 [A,,A,]2 [A,,A,]2 [E,A,] [E,G,]3 | [E,G,]2 [E,G,]2 [E,G,] [A,,A,]3 | %11
 [D,A,]2 [D,F,]2 [B,,A,]2 [B,,A,]2 | (G,4 B,2) z2 | A,2 [A,C]2 [A,C] A,3 | %14
 [C,A,]2 [C,A,]2 [D,A,] [D,A,]3 | [E,A,]2 [E,A,]2 [E,G,]3 [E,B,] | [A,,A,]6 |] %17
V:3
 x2 | x8 | x8 | x8 | x8 | x8 | x8 | x8 | x8 || x8 | x8 | x8 | E,6 x2 | A,2 x A,3 x2 | x8 | x8 | %16
 x6 |] %17

